packages/calcite-ui-icons/icons/transcript-16-f.svg

<?xml version="1.0" encoding="UTF-8"?><svg id="icons" xmlns="http://www.w3.org/2000/svg" viewBox="0 0 16 16"><defs><style>.cls-1{fill:none;}.cls-1,.cls-2{stroke-width:0px;}.cls-2{fill:#000;}</style></defs><rect class="cls-1" width="16" height="16"/><path class="cls-2" d="M2,0v16h13V0H2ZM4,3h2v1h-2v-1ZM4,9h5v1h-5v-1ZM11,13h-7v-1h7v1ZM13,10h-3v-1h3v1ZM13,7H4v-1h9v1ZM13,4h-6v-1h6v1Z"/></svg>

<svg xmlns="http://www.w3.org/2000/svg" viewBox="0 0 16 16"><path d="M2 0v16h13V0H2zm2 3h2v1H4V3zm0 6h5v1H4V9zm7 4H4v-1h7v1zm2-3h-3V9h3v1zm0-3H4V6h9v1zm0-3H7V3h6v1z"/><path fill="none" d="M0 0h16v16H0z"/></svg>
